X: 44
T: an Irishman's Heart to the Ladies
R: jig
Z: 1997 by John Chambers <jc:trillian.mit.edu>
B: NEFR #13
M: 6/8
L: 1/8
K: A
a \
| "A"ecA "D"BAF | "A"AFE EFA | "Bm"Bdc BAB | "E7"cBB B2f \
| "A"ecA "D"BAF | "A"AFE EFA | "Bm"Bdc "E7"BAB | "A"cAA A2 ::
B \
| "A"cee "D"dff | "A"cee ecA | cde "D"faf | "A"ecA "E7"B2A \
| "A"cee "D"dff | "A"cee ecA | "Bm"B{c}dc "E7"BAB | "A"cAA A2 :|

%%sep 1 1 500

